symbols/web/bug_report/materialsymbolsoutlined/bug_report_wght600grad200_24px.svg

<svg xmlns="http://www.w3.org/2000/svg" height="24" width="24"><path d="M12 22q-1.9 0-3.537-.962Q6.825 20.075 5.9 18.4H3.05v-2.65H5.1q-.05-.35-.062-.7-.013-.35-.013-.725H3.05v-2.65h1.975q0-.35.013-.688.012-.337.062-.662H3.05v-2.65h2.925q.275-.65.725-1.175.45-.525 1-.95L6.075 3.925l1.9-1.85 2.2 2.175q.825-.375 1.738-.388.912-.012 1.787.338L15.925 2l1.85 1.85-1.575 1.6q.6.45 1.088 1.037.487.588.837 1.288h2.825v2.55H18.9q.05.325.062.662.013.338.013.688h1.975v2.65h-1.975q0 .375-.025.725l-.05.7h2.05v2.65H18.1q-.925 1.675-2.562 2.638Q13.9 22 12 22Zm0-3.075q1.675 0 2.788-1.187Q15.9 16.55 15.9 14.875v-3.7q0-1.675-1.112-2.888Q13.675 7.075 12 7.075q-1.675 0-2.787 1.2-1.113 1.2-1.113 2.9v3.7q0 1.675 1.113 2.863 1.112 1.187 2.787 1.187Zm-2.175-2.55h4.35v-2.65h-4.35Zm0-4.05h4.35v-2.65h-4.35ZM12 13Z"/></svg>

<svg xmlns="http://www.w3.org/2000/svg" height="24" width="24"><path d="M12 22Q10.1 22 8.463 21.038Q6.825 20.075 5.9 18.4H3.05V15.75H5.1Q5.05 15.4 5.038 15.05Q5.025 14.7 5.025 14.325H3.05V11.675H5.025Q5.025 11.325 5.038 10.987Q5.05 10.65 5.1 10.325H3.05V7.675H5.975Q6.25 7.025 6.7 6.5Q7.15 5.975 7.7 5.55L6.075 3.925L7.975 2.075L10.175 4.25Q11 3.875 11.913 3.862Q12.825 3.85 13.7 4.2L15.925 2L17.775 3.85L16.2 5.45Q16.8 5.9 17.288 6.487Q17.775 7.075 18.125 7.775H20.95V10.325H18.9Q18.95 10.65 18.962 10.987Q18.975 11.325 18.975 11.675H20.95V14.325H18.975Q18.975 14.7 18.95 15.05Q18.925 15.4 18.9 15.75H20.95V18.4H18.1Q17.175 20.075 15.538 21.038Q13.9 22 12 22ZM12 18.925Q13.675 18.925 14.788 17.738Q15.9 16.55 15.9 14.875V11.175Q15.9 9.5 14.788 8.287Q13.675 7.075 12 7.075Q10.325 7.075 9.213 8.275Q8.1 9.475 8.1 11.175V14.875Q8.1 16.55 9.213 17.738Q10.325 18.925 12 18.925ZM9.825 16.375H14.175V13.725H9.825ZM9.825 12.325H14.175V9.675H9.825ZM12 13Q12 13 12 13Q12 13 12 13Q12 13 12 13Q12 13 12 13Q12 13 12 13Q12 13 12 13Q12 13 12 13Q12 13 12 13Z"/></svg>
